src/assets/outline/Photoshop.svg

<?xml version="1.0" encoding="UTF-8"?>
<svg width="24" height="24" viewBox="0 0 24 24" xmlns="http://www.w3.org/2000/svg">
 <path d="m15 22.75h-6c-5.43 0-7.75-2.32-7.75-7.75v-6c0-5.43 2.32-7.75 7.75-7.75h6c5.43 0 7.75 2.32 7.75 7.75v6c0 5.43-2.32 7.75-7.75 7.75zm-6-20c-4.61 0-6.25 1.64-6.25 6.25v6c0 4.61 1.64 6.25 6.25 6.25h6c4.61 0 6.25-1.64 6.25-6.25v-6c0-4.61-1.64-6.25-6.25-6.25h-6z"/>
 <path d="m7.5 16.75c-0.41 0-0.75-0.34-0.75-0.75v-8c0-0.41 0.34-0.75 0.75-0.75h2c1.52 0 2.75 1.23 2.75 2.75s-1.23 2.75-2.75 2.75h-1.25v3.25c0 0.41-0.34 0.75-0.75 0.75zm0.75-5.5h1.25c0.69 0 1.25-0.56 1.25-1.25s-0.56-1.25-1.25-1.25h-1.25v2.5z"/>
 <path d="m15.25 16.75h-1.25c-0.41 0-0.75-0.34-0.75-0.75s0.34-0.75 0.75-0.75h1.25c0.28 0 0.5-0.22 0.5-0.5s-0.22-0.5-0.5-0.5c-1.1 0-2-0.9-2-2s0.9-2 2-2h1.25c0.41 0 0.75 0.34 0.75 0.75s-0.34 0.75-0.75 0.75h-1.25c-0.28 0-0.5 0.22-0.5 0.5s0.22 0.5 0.5 0.5c1.1 0 2 0.9 2 2s-0.9 2-2 2z"/>
</svg>

<svg width="24" height="24" viewBox="0 0 24 24"  xmlns="http://www.w3.org/2000/svg">
<path d="M15 22.75H9C3.57 22.75 1.25 20.43 1.25 15V9C1.25 3.57 3.57 1.25 9 1.25H15C20.43 1.25 22.75 3.57 22.75 9V15C22.75 20.43 20.43 22.75 15 22.75ZM9 2.75C4.39 2.75 2.75 4.39 2.75 9V15C2.75 19.61 4.39 21.25 9 21.25H15C19.61 21.25 21.25 19.61 21.25 15V9C21.25 4.39 19.61 2.75 15 2.75H9Z" />
<path d="M7.5 16.75C7.09 16.75 6.75 16.41 6.75 16V8C6.75 7.59 7.09 7.25 7.5 7.25H9.5C11.02 7.25 12.25 8.48 12.25 10C12.25 11.52 11.02 12.75 9.5 12.75H8.25V16C8.25 16.41 7.91 16.75 7.5 16.75ZM8.25 11.25H9.5C10.19 11.25 10.75 10.69 10.75 10C10.75 9.31 10.19 8.75 9.5 8.75H8.25V11.25Z" />
<path d="M15.25 16.75H14C13.59 16.75 13.25 16.41 13.25 16C13.25 15.59 13.59 15.25 14 15.25H15.25C15.53 15.25 15.75 15.03 15.75 14.75C15.75 14.47 15.53 14.25 15.25 14.25C14.15 14.25 13.25 13.35 13.25 12.25C13.25 11.15 14.15 10.25 15.25 10.25H16.5C16.91 10.25 17.25 10.59 17.25 11C17.25 11.41 16.91 11.75 16.5 11.75H15.25C14.97 11.75 14.75 11.97 14.75 12.25C14.75 12.53 14.97 12.75 15.25 12.75C16.35 12.75 17.25 13.65 17.25 14.75C17.25 15.85 16.35 16.75 15.25 16.75Z" />
</svg>
